workspaces/osm/styles/symbols/car_wash.svg

<?xml version="1.0" encoding="UTF-8" standalone="no"?>
<svg
   xmlns:dc="http://purl.org/dc/elements/1.1/"
   xmlns:cc="http://creativecommons.org/ns#"
   xmlns:rdf="http://www.w3.org/1999/02/22-rdf-syntax-ns#"
   xmlns:svg="http://www.w3.org/2000/svg"
   xmlns="http://www.w3.org/2000/svg"
   id="svg2"
   viewBox="0 0 14 14"
   height="14"
   width="14"
   version="1.1">
  <metadata
     id="metadata8">
    <rdf:RDF>
      <cc:Work
         rdf:about="">
        <dc:format>image/svg+xml</dc:format>
        <dc:type
           rdf:resource="http://purl.org/dc/dcmitype/StillImage" />
        <dc:title></dc:title>
      </cc:Work>
    </rdf:RDF>
  </metadata>
  <defs
     id="defs6" />
  <rect
     width="14"
     height="14"
     x="0"
     y="0"
     id="canvas"
     style="fill:none;stroke:none;visibility:hidden" />
  <path
     d="M 5,2 3,5 2,5 4,2 Z m 4,0 2,3 1,0 -2,-3 z m -2.5,0 1,0 0,3 -1,0 z M 6,0 4,1 10,1 8,0 Z M 4,6 3,9 C 2.527334,9 2,9.3842954 2,10 l 0,3 1,0 c 0,0 0,1 1,1 1,0 1,-1 1,-1 l 4,0 c 0,0 0,1 1,1 1,0 1,-1 1,-1 l 1,0 0,-3 C 12,9.4793944 11.544575,9 11,9 L 10,6 4,6 Z M 5,7 9,7 9.625,9 4.375,9 5,7 Z m -1,3.25 c 0.414214,0 0.75,0.335786 0.75,0.75 0,0.414214 -0.335786,0.75 -0.75,0.75 -0.414214,0 -0.75,-0.335786 -0.75,-0.75 0,-0.414214 0.335786,-0.75 0.75,-0.75 z m 6,0 c 0.414214,0 0.75,0.335786 0.75,0.75 0,0.414214 -0.335786,0.75 -0.75,0.75 -0.414214,0 -0.75,-0.335786 -0.75,-0.75 0,-0.414214 0.335786,-0.75 0.75,-0.75 z"
     style="fill:#000000;fill-opacity:1;fill-rule:evenodd;stroke:none;stroke-opacity:1"
     id="path4290-2" />
</svg>

<svg width="14" height="14" version="1.1" viewBox="0 0 14 14" xmlns="http://www.w3.org/2000/svg"><rect id="a" width="14" height="14" fill="none" visibility="hidden"/><path d="m5 2c-0.66667 1-1.3333 2-2 3h-1c0.66667-1 1.3333-2 2-3h1zm4 0c0.66667 1 1.3333 2 2 3h1c-0.66667-1-1.3333-2-2-3h-1zm-2.5 0h1v3h-1v-3zm-0.5-2c-0.66667 0.33333-1.3333 0.66667-2 1h6c-0.66667-0.33333-1.3333-0.66667-2-1h-2zm-2 6c-0.33333 1-0.66667 2-1 3-0.5691-0.0070484-1.0653 0.52987-1 1.099v2.901h1c-0.00185 0.48422 0.35456 0.9767 0.86586 0.99361 0.44803 0.066406 0.94144-0.17733 1.0671-0.63259 0.047499-0.21654 0.029391-0.43734 0.30464-0.36102h3.7624c-0.00185 0.48422 0.35456 0.9767 0.86586 0.99361 0.44803 0.06641 0.94144-0.17733 1.0671-0.63259 0.0475-0.21654 0.02939-0.43734 0.30464-0.36102h0.76241c-0.0034-1.0323 0.0069-2.065-0.0052-3.097-0.050794-0.48918-0.49949-0.9068-0.9948-0.90298-0.33333-1-0.66667-2-1-3h-6zm1 1h4c0.20833 0.66667 0.41667 1.3333 0.625 2h-5.25c0.20833-0.66667 0.41667-1.3333 0.625-2zm-1 3.25c0.54625-0.02493 0.9416 0.63899 0.65948 1.1075-0.23692 0.48717-0.99873 0.52405-1.2814 0.06184-0.34178-0.4756 0.035704-1.1866 0.62191-1.1693zm6 0c0.54625-0.02493 0.9416 0.63899 0.65948 1.1075-0.23692 0.48717-0.99873 0.52405-1.2814 0.06184-0.34178-0.4756 0.035704-1.1866 0.62191-1.1693z" fill-rule="evenodd"/></svg>
